X:737
T:Mrs. Mary Printy 
C:Joe Buchanan's Scottish Tome - Page 652.0
I:652 0
C:Iain MacPhail
R:Reel
L:1/8
Q:1/4=120
M:2/4
K:F
AA cc | fe/f/ g/f/c/A/ | BB dd | e^d/e/ g/e/c/B/ |
AA cc | fe/f/ g/f/c/A/ | BB e/c/B/G/ | AF A z :|
F/G/ | AF/A/ C/A/F/A/ | AF/A/ C/A/F/A/ | GE/G/ C/G/E/G/ | GE/G/ C/G/E/G/ |
AF/A/ C/A/F/A/ | AF/A/ C/A/F/A/ | GE G/E/C/E/ | FF F :|
C | FF AA | c=B/c/ d/c/A/F/ | GG | c=B/c/ d/c/_B/G/ |
FF AA | c=B/c/ d/c/A/F/ | GG cB B/B/G/E/ | FF F :|
x A/B/ & C0 D0/ E0/ | cA/c/ F/c/A/c/ | cA/c/ F/c/A/c/ | cB/c/ E/c/B/c/ | cB/c/ E/c/B/c/ |cA/c/ F/c/A/c/ | cA/c/ F/c/A/c/ | cA/c/ B/G/E/G/ FF F :|
